!!!COM: Gonzaga, Francisca
!!!CDT: 1847/10/17-1935/02/28
!!!OTL: Bionne
**kern	**kern
*part2	*part1
*staff2	*staff1
*>[U,A,B,C,C1,C,C2,A]	*>[U,A,B,C,C1,C,C2,A]
*>I	*
*clefF4	*clefG2
*k[]	*k[]
*M2/4	*M2/4
=	=
*C:	*
8.r	(16gLL
.	16gg
.	16gg#XJJ)
=1!|:	=1!|:
*>A	*
!	!LO:TX:a:t=[segno]
16GGKL	(16bbLL
8G 8B 8f	16ff
.	16aa
16GJk 16B 16f	16ddJJ
16DKL	16ffLL
8F 8G 8B	16b
.	16dd
16FJk	16aJJ)
=2	=2
16EKL	8.eL 8.g
8G 8c	.
16GJk 16c	16eJk 16g
16GGKL	16r
8E 8G	(16cLL
.	16e
16EJk 16G	16aJJ)
=3	=3
16DKL	8.fL 8.g
8F 8G 8B	.
16FJk 16G 16B	16fJk 16g
8GGL	16r
.	(16bLL
8FJ 8G 8B	16a
.	16a-XJJ)
=4	=4
16CKL	8.eL 8.g
8E 8G 8c	.
16EJk 16G 16c	16eJk 16g
8GG	16r
.	(16gLL
8r	16gg
.	16gg#XJJ)
=5	=5
16GKL	(16bbLL
8B 8f	16ff
.	16aa
16BJk 16f	16ddJJ
16DKL	16ffLL
8G 8B 8f	16b
.	16dd
16GJk 16B 16f	16aJJ)
=6	=6
16CKL	8.eL 8.g
8E 8G 8c	.
16EJk 16G 16c	16eJk 16g
4r	16r
.	(16cLL
.	16e
.	16gJJ)
=7	=7
16DKL	8.bL 8.dd
8G 8B 8d	.
16GJk 16B 16d	16bJk 16dd
16F#XKL	16r
8c 8d	16ccLL
.	16dd
16cJk 16d	16ff#XJJ
=8	=8
16GKL	8.bL 8.ff 8.aa
8B 8f	.
16BJk 16f	16ggJk
8G	16r
.	(16ff#XLL
8r	16gg
.	16gg#XJJ)
=9	=9
16GGKL	(16bbLL
8G 8B 8f	16ff
.	16aa
16GJk 16B 16f	16ddJJ)
16DKL	(16ffLL
8F 8G 8B	16b
.	16dd
16FJk	16aJJ)
=10	=10
16EKL	8.eL 8.g
8G 8c	.
16GJk 16c	16eJk 16g
16GGKL	16r
8E 8G	(16cLL
.	16e
16EJk 16G	16aJJ)
=11	=11
16DKL	8.fL 8.g
8F 8G 8B	.
16FJk 16G 16B	16fJk 16g
8GGL	16r
.	(16bLL
8FJ 8G 8B	16a
.	16a-XJJ)
=12	=12
16CKL	8.eL 8.g
8E 8G 8c	.
16EJk 16G 16c	16eJk 16g
8E	16r
.	16eLL
8r	16f
.	16gJJ
=13	=13
16FKL	(16aLL
8A 8d	16g#X
.	16a
16AJk 16d	16bJJ)
16F#XKL	(16ccLL
8c 8d	16b
.	16cc
16cJk 16d	16ddJJ)
=14	=14
16GKL	(16eeLL
8c 8e 8g	16dd#X
.	16ee
16cJk 16e 16g	16ffJJ
16EKL	16ggLL
8G 8c 8e	16ff#X
.	16gg
16GJk 16c 16e	16gg#XJJ)
=15	=15
16FKL	16bbLL
8A 8d 8f	16aa
.	16ee
16AJk 16d 16f	16ggJJ
16GGKL	16ffLL
8G 8B 8f	16b
.	16ee
16GJk 16B 16f	16ddJJ
=16	=16
8cL 8e	8ccL
8CJ	8ccJ 8ee 8gg 8ccc
!	!LO:TX:a:t=Fine
*>B	*
4r	16r
.	(16ccLL
.	16ccc
.	16ccc#XJJ)
=17||	=17||
*F:	*
*k[b-]	*k[b-]
16GKL	(16eeeLL
8B- 8c 8e	16ddd
.	16ccc
16B-Jk 16c 16e	16bb-JJ
8CL	16ggLL
.	16ee
8B-J 8c 8e	16dd
.	16dd-XJJ)
=18	=18
16FKL	8.aL 8.cc
8A 8c 8f	.
16AJk 16c 16f	16aJk 16cc
8CL	(16aLL
.	16cc
8AJ 8c 8f	16ff
.	16aaJJ)
=19	=19
16AKL	(16bb-LL
8c#X 8e 8g	16aa
.	16gg
16c#Jk 16e 16g	16eeJJ
16GKL	16cc#XLL
8A 8c# 8e	16b-
.	16a
16AJk 16c# 16e	16gJJ)
=20	=20
16DKL	8.dL 8.f
8F 8A	.
16FJk 16A	16dJk 16f
8D	16r
.	(16dLL
8r	16e
.	16fJJ)
=21	=21
16BB-KL	(16gLL
8G 8B- 8d	16a
.	16b-
16GJk 16B- 16d	16ccJJ
8BB-L	16ddLL
.	16ee
8GJ 8B- 8d	16ff
.	16ggJJ)
=22	=22
16CKL	8.ccL 8.aa 8.ccc
8A 8c 8f	.
16AJk 16c 16f	16ccJk 16aa 16ccc
8CL	16r
.	(16ccc#XLL
8AJ 8c 8f	16eee
.	16dddJJ)
=23	=23
16EKL	8.ccL 8.bb- 8.ccc
8B- 8c 8e	.
16B-Jk 16c 16e	16ccJk 16bb- 16ccc
8CL	16r
.	(16ccc#XLL
8B-J 8c 8e	16eee
.	16dddJJ)
=24	=24
16FKL	(16cccLL
8AJ 8c 8f	16aa
.	16ff
16r	16ddJJ
4r	16ccLL
.	16a
.	16f
.	16cJJ)
=25	=25
16CKL	(16eeeLL
8B- 8c 8e	16ddd
.	16ccc
16B-Jk 16c 16e	16bb-JJ
8EL	16ggLL
.	16ee
8B-J 8c 8e	16dd
.	16dd-XJJ)
=26	=26
16FKL	8.aL 8.cc
8A 8c 8f	.
16AJk 16c 16f	16aJk 16cc
8CL	(16aLL
.	16cc
8AJ 8c 8f	16ff
.	16aaJJ)
=27	=27
16AKL	(16bb-LL
8c#X 8e 8g	16aa
.	16gg
16c#Jk 16e 16g	16eeJJ
16GKL	16cc#XLL
8A 8c# 8e	16b-
.	16a
16AJk 16c# 16e	16gJJ)
=28	=28
16DKL	8.dL 8.f
8F 8A	.
16FJk 16A	16dJk 16f
8D	16r
.	(16dLL
8r	16e
.	16fJJ)
=29	=29
16BB-KL	(16gLL
8G 8B- 8d	16a
.	16b-
16GJk 16B- 16d	16ccJJ
8BB-L	16ddLL
.	16ee
8GJ 8B- 8d	16ff
.	16ggJJ)
=30	=30
16CKL	8.ccL 8.aa 8.ccc
8A 8c 8f	.
16AJk 16c 16f	16ccJk 16aa 16ccc
8CL	16r
.	(16ccc#XLL
8AJ 8c 8f	16eee
.	16dddJJ)
=31	=31
16EKL	8.ccL 8.bb- 8.ccc
8B- 8c 8e	.
16B-Jk 16c 16e	16ccJk 16bb- 16ccc
8CL	16r
.	(16eeeLL
8B-J 8c 8e	16aa
.	16gggJJ)
=32	=32
8AL 8c 8f	8aa 8ccc 8fff
8FJ	8r
4r	16r
.	16gLL
.	16gg
.	16gg#XJJ
=33||	=33||
*C:	*
*k[]	*k[]
16GGKL	(16bbLL
8G 8B 8f	16ff
.	16aa
16GJk 16B 16f	16ddJJ
16DKL	16ffLL
8F 8G 8B	16b
.	16dd
16FJk	16aJJ)
=34	=34
16EKL	8.eL 8.g
8G 8c	.
16GJk 16c	16eJk 16g
16GGKL	16r
8E 8G	(16cLL
.	16e
16EJk 16G	16aJJ)
=35	=35
16DKL	8.fL 8.g
8F 8G 8B	.
16FJk 16G 16B	16fJk 16g
8GGL	16r
.	(16bLL
8FJ 8G 8B	16a
.	16a-XJJ)
=36	=36
16CKL	8.eL 8.g
8E 8G 8c	.
16EJk 16G 16c	16eJk 16g
8GG	16r
.	(16gLL
8r	16gg
.	16gg#XJJ)
=37	=37
16GKL	(16bbLL
8B 8f	16ff
.	16aa
16BJk 16f	16ddJJ
16DKL	16ffLL
8G 8B 8f	16b
.	16dd
16GJk 16B 16f	16aJJ)
=38	=38
16CKL	8.eL 8.g
8E 8G 8c	.
16EJk 16G 16c	16eJk 16g
4r	16r
.	(16cLL
.	16e
.	16gJJ)
=39	=39
16DKL	8.bL 8.dd
8G 8B 8d	.
16GJk 16B 16d	16bJk 16dd
16F#XKL	16r
8c 8d	16ccLL
.	16dd
16cJk 16d	16ff#XJJ
=40	=40
16GKL	8.bL 8.ff 8.aa
8B 8f	.
16BJk 16f	16ggJk
8G	16r
.	(16ff#XLL
8r	16gg
.	16gg#XJJ)
=41	=41
16GGKL	(16bbLL
8G 8B 8f	16ff
.	16aa
16GJk 16B 16f	16ddJJ)
16DKL	(16ffLL
8F 8G 8B	16b
.	16dd
16FJk	16aJJ)
=42	=42
16EKL	8.eL 8.g
8G 8c	.
16GJk 16c	16eJk 16g
16GGKL	16r
8E 8G	(16cLL
.	16e
16EJk 16G	16aJJ)
=43	=43
16DKL	8.fL 8.g
8F 8G 8B	.
16FJk 16G 16B	16fJk 16g
8GGL	16r
.	(16bLL
8FJ 8G 8B	16a
.	16a-XJJ)
=44	=44
16CKL	8.eL 8.g
8E 8G 8c	.
16EJk 16G 16c	16eJk 16g
8E	16r
.	16eLL
8r	16f
.	16gJJ
=45	=45
16FKL	(16aLL
8A 8d	16g#X
.	16a
16AJk 16d	16bJJ)
16F#XKL	(16ccLL
8c 8d	16b
.	16cc
16cJk 16d	16ddJJ)
=46	=46
16GKL	(16eeLL
8c 8e 8g	16dd#X
.	16ee
16cJk 16e 16g	16ffJJ
16EKL	16ggLL
8G 8c 8e	16ff#X
.	16gg
16GJk 16c 16e	16gg#XJJ)
=47	=47
16FKL	(16bbLL
8A 8d 8f	16aa
.	16ee
16AJk 16d 16f	16ggJJ
16GGKL	16ffLL
8G 8B 8f	16b
.	16ee
16GJk 16B 16f	16ddJJ)
=48	=48
8cL 8e	8ccL
8CJ	8eeJ 8gg 8ccc
4r	4r
=49!|:	=49!|:
*F:	*
*k[b-]	*k[b-]
*>C	*
[4FF: [4C: [4A:	16r
.	16cLL 16f 16a
.	16c 16f 16a
.	16cJJ 16f 16a
4FF] 4C] 4A]	8dL 8f 8b-
.	8cJ 8f 8a
=50	=50
2FF: 2C: 2G:	16r
.	16B-LL 16e 16g
.	16B- 16e 16g
.	16B-JJ 16e 16g
.	8B-L 8e 8a
.	8B-J 8e 8g
=51	=51
8.FFL	16r
.	8AL 8c 8f
16AAJk	16AJk 16c 16f
8.CL	8FL 8A 8d
.	8FJ 8A 8e
16BB-Jk	.
=52	=52
8.GGL	8EL 8c
.	8FJ 8B- 8d
16BB-Jk	.
8CL	4E 4c
16GGL	.
16CCJJ	.
=53	=53
[4FF: [4C: [4A:	16r
.	16cLL 16f 16a
.	16c 16f 16a
.	16cJJ 16f 16a
4FF] 4C] 4A]	8dL 8f 8b-
.	8cJ 8f 8a
=54	=54
2FF: 2C: 2G:	16r
.	16B-LL 16e 16g
.	16B- 16e 16g
.	16B-JJ 16e 16g
.	8B-L 8e 8a
.	8B-J 8e 8g
=55	=55
8.AAL	16r
.	8AL 8d 8f
16DJk	16AJk 16d 16f
8.EL	8GL 8c#X 8f
.	8GJ 8c# 8e
16AAJk	.
=56	=56
8.DDL	4F 4A 4d
16AAJk	.
8DL	4r
8FJ	.
=57	=57
8CL	8eL 8b- 8cc
8B-J 8c	8eJ 8b- 8dd
8CL	8dL 8b- 8dd
8B-J 8c	8eJ 8b- 8ee
=58	=58
16CKL	16aKL 16cc 16gg
8A 8c 8f	8a 8cc 8ff
16AJk 16c	16fJk 16a 16dd
8AL 8c	4f 4a 4cc
8CJ	.
=59	=59
8EL	8b-L 8ee 8bb-
8B-J 8c 8e	8b-J 8ee 8bb-
8CL	8b-L 8ee 8bb-
8B-J 8c 8e	8b-J 8ee 8bb-
=60	=60
16FKL	16ccKL 16ff 16bb-
8A 8c 8f	8cc 8ff 8aa
16AJk 16c 16f	16ccJk 16ff 16gg#X
8AL 8c 8f	4cc 4ff 4aa
8cJ	.
=61	=61
8BnL	8bnL 8ff 8aa
8dJ	8bJ 8ff 8gg
8fL	8bL 8ff 8gg
8dJ	8ffJ 8bbn 8ddd
=62	=62
16cKL	16ffKL 16aa 16ddd
8f	8ff 8aa 8ccc
16aJk	16ccJk 16ff 16aa
8fL	8aL 8cc 8ff
8cJ	8fJ 8a 8dd
=63	=63
*>C1	*
8CL	8eL 8b- 8cc
8B-J 8c	8eJ 8b- 8dd
8CL	8b-L 8ee
8B-J 8c 8e	8b-J 8dd
=64	=64
*>C2	*
4F 4A 4c	16fLL 16a 16cc
.	(16bn
.	16dd
.	16ccJJ)
4r	(16aLL
.	16f
.	16d
.	16cJJ)
=65:|!	=65:|!
8CL	8eL 8b- 8cc
8GJ 8B-	8eJ 8b- 8cc#X
8CL	8eL 8b- 8dd
8GJ 8B-	8eJ 8b- 8ccn 8ee
=66	=66
4F 4A 4c	4f 4a 4cc 4ff
4r	16r
.	(16gLL
.	16gg
.	16gg#XJJ)
!	!LO:TX:a:B:t=D.S. al Fine
==	==
*-	*-
!!!system-decoration: {(s1,s2)}
!!!AGN: Tango
!!!EED: Florian Moldaschl
!!!END: 2025/12/23
!!!ENC: Florian Moldaschl
!!!EEV: 2026/01/19
!!!title: @{OPR}, @{SCT} №@{ONM}